X:221
T:Saltpetre Shanty
M:6/8
L:1/8
Q:1/4=120
K:G
D|\
GAG FED|(GA)G (FD)d|B3- B2D|
GAG FED|(GA)G (FD)d|B3- B2B|
(de)d (dc)B|cdc (cB)A|BBB dcB|AAA d2d|
B3  B2A|G3  GAB|c2B c2F|G3- G2 ||
